X:1
T:Title
%%score { ( 1 3 ) | 2 }
L:1/8
Q:1/4=90
M:6/8
K:Bb
V:1 treble nm="Grand Piano"
V:3 treble 
V:2 bass 
V:1
 [DF][DF][DF] [Fd][Ec][DB] | [DF][B,D][EG] [DF]3 | FFd c3 | FFc [DB]3 | [DF][DG][DA] [DB][CA][DB] | %5
w: Wm.~Edie~Marks * * * * *|||||
 cBc d3 | ccc cBA | [DB]6 | .F6 | F3 z3 | AAA AGA | [DB]3 .[Fd]3 | d-[Fd-][Fd-] [Fd][Ec][DB] | %13
w: ||||||||
 F3 z3 | ccc cBA | [DB]6 |] %16
w: |||
V:2
 [B,,B,][B,,B,][B,,B,] [B,,B,][B,,B,][B,,B,] | [B,,B,][B,,F,][B,,B,] [B,,B,]3 | %2
 [F,B,D][F,B,D][F,B,F] [F,A,E]3 | [F,A,E][F,A,E][F,A,E] [B,,B,]3 | %4
 [B,,B,][B,,B,][B,,B,] [B,,F,][B,,F,][B,,B,] | [F,A,E][F,B,D][F,A,E] [B,F]3 | %6
 [F,A,E][F,A,E][F,A,E] [F,A,E][F,B,D][F,CE] | [B,,B,]6 | %8
 [B,,B,][B,,B,][B,,B,] [B,,B,][B,,F,B,][B,,B,] | [B,,B,][B,,B,][B,,B,] .[B,,B,]3 | %10
 [F,CE][F,CE][F,CE] [F,CE][F,CE][F,CE] | [B,,B,]6 | [B,,B,][B,,B,][B,,B,] [B,,B,][B,,F,][B,,F,] | %13
 [B,,B,][B,,B,][B,,B,] .[B,,B,]3 | [F,A,E][F,A,E][F,A,E] [F,A,E][F,B,D][F,CE] | [B,,B,]6 |] %16
V:3
 x6 | x6 | x6 | x6 | x6 | x6 | x6 | x6 | DDD DD[EG] | DDD .[DB]3 | x6 | x6 | .F3 z3 | DDD .[DB]3 | %14
 x6 | x6 |] %16

